X:1
T:Lobt Gott Ihr Chisten, CM
T:Lobt Gott Ihr Chisten, CM
T:Nikolaus Hermann, 1554
T:Public Domain Courtesy of the Cyber Hymnal™
C:Nikolaus Hermann, 1554
Z:Public Domain
Z:Courtesy of the Cyber Hymnal™
%%score ( 1 2 ) ( 3 4 )
L:1/8
Q:1/4=110
M:4/4
K:Eb
V:1 treble 
V:2 treble 
V:3 bass 
V:4 bass 
V:1
 [B,E]2 | [B,B]2 [DB]2 [EB]2 [EB]2 | [Ec]2 (BA) [EG]2 F2 | (G=A) [DB]2 c2 [Ec]2 | [DB]6 [FB]2 | %5
 [EB]2 [DB]2 [EB]2 (GA) | [EB]2 ([FA][EG]) [DF]2 [DB]2 | A2 z [DF]2 [DF]2 x | %8
 (EF) (GA) [DB]2 [EB]2 | [EA]2 (GF) [EG]2 [DF]2 | [B,E]6 |] %11
V:2
 x2 | x8 | x2 D2 x F2 x | E2 x (C D) x3 | x8 | x6 E2 | x8 | (EF) (G2 E) x3 | E4 x4 | x2 E2 x4 | %10
 x6 |] %11
V:3
 [E,G,]2 | [D,F,]2 (B,A,) ([E,G,][F,A,]) [G,B,]2 | (A,G,) (F,B,) [E,B,]2 [D,B,]2 | %3
 [C,E,]2 [B,,F,]2 [E,G,]2 [F,=A,]2 | [B,,F,]6 (B,A,) | [E,G,]2 [F,A,]2 [G,B,]2 [C,C]2 | %6
 [G,,B,]2 [A,,C]2 [B,,F,]2 [G,,G,]2 | [C,G,][D,F,] (G,A,) [B,,B,]2 [=B,,A,]2 | %8
 G,2 C2 [G,B,]2 [E,G,]2 | A,B, C2 [B,,B,]2 (B,A,) | [E,,G,]6 |] %11
V:4
 x2 | x2 B,,2 x4 | A,,2 B,,2 x4 | x8 | x6 D,2 | x8 | x8 | x2 E,2 x4 | (C,D,) (E,F,) x4 | %9
 C,2 (B,,A,,) x B,,2 x | x6 |] %11

